X:13
T:2. Kitty's Gone a Milking
S:Mike Rafferty
Z:Lesl
M:C|
L:1/8
K:G
c|:d~G3 d2cA|D~G3 FGAc|d~G3 d2 eg|fdcA G3B:|
| d~g3 aggf|dggf d2cA|d~g3 aggf|dcAB c2Bc|
d~g3 aggf|dggf d2cA|defg abag|fdcA G3||

